X:167
T:RVW2/2/167 The Ranter Parson
C:Mr. Earle, Leith Hill, Surrey, September - October 1904
L:1/8
Q:1/4=90
M:9/8
I:linebreak $
K:C
"^(Editorial suggestion) " G | A>BA Adc B!fermata!GG | A>BA Adc !fermata!B zG/G/ |$ ccc cBc ABc | 
w: It|is of a sly ran- ter par- son, for|preach- ing he lived in great fame. In a|town near this place he did dwell, but I|
(GA)G GGE C2 G/G/ |$ A>BA Adc B!fermata!GG | A>BA Adc !fermata!B zG |$ ccc cBc ABc | 
w: must _ not men- tion his name. And it|is of a jol- ly young farm- er, a|neigh- bour who liv- �d hard by, and|soon on the wife of this farm- er this|
G A G G2 E D2 ||$"^CHORUS" C | C>CC D>CD EFG | A>BA GGE C2 |] 
w: ran- ter he cast his eye.|Fal|lal de lal lal de lal lid- dle, li|fal de lal did- dle di day.|



